X:107
M:2/4
L:1/8
K:A
|: e2 e>f | ecBA | f2 f>g | a2 g>f | e2 e>f | ecAa | edcB | {B}A4 :|

